X: 09011
T: BOB REEVE'S HORNPIPE
C: Bob McQuillen 5 Nov 92
B: Bob's Note Book 9 #11
%R: hornpipe, reel
Z: 2019 John Chambers <jc:trillian.mit.edu>
M: C
L: 1/8
K: D
fe \
| d2DE FDFA | dfec d2cB | ABcd e2gf | edcB A2Bc |
| d2DE FDFA | defg a2fd | Aceg fded | A2d2 d2 :|
|: fg \
| a2ag f2ef | gfed B2ef | g2gf efed | c2A2 A2Bc |
| d2D2 DEFA | d2DD D2FA | Bdgf efga | f2d2 d2 :|
%%begintext align
%% Well, it's like this: Lydia
%% Reeve has a nice husband named Bob, and Lydia's daughter
%% Fritha has a nice daddy and his name is Bob, too (same guy!)
%% (that's why!) and of course, they all come to the dances and I like
%% them a lot, and I guess that has a whole lot to do with why
%% this tune is called what it's called!  Whaddaya think of that?!
%%endtext

%%sep 1 1 500

%%sep 1 1 500

